assets/images/icon/AMG.svg

<svg width="86" height="8" viewBox="0 0 86 8" fill="none" xmlns="http://www.w3.org/2000/svg">
    <path d="M86 3.62603C85.9972 3.50103 85.9443 3.38192 85.8524 3.29361C85.7604 3.2053 85.6366 3.15463 85.5068 3.15219H77.3939C77.2641 3.15463 77.1403 3.2053 77.0484 3.29361C76.9564 3.38192 76.9035 3.50103 76.9007 3.62603V4.30491C76.9007 4.55883 77.1302 4.79575 77.3939 4.79575H82.498C82.8323 4.79575 82.8147 4.94874 82.8147 5.32165V5.40664C82.8147 5.77849 82.8323 5.86348 82.498 5.86348H72.1309C72.0011 5.86076 71.8774 5.80982 71.7857 5.72131C71.694 5.63281 71.6414 5.51358 71.6388 5.38858V2.5073C71.6388 2.25339 71.8496 2.03347 72.132 2.03347H85.5079C85.6376 2.03049 85.7612 1.97947 85.8528 1.89101C85.9445 1.80256 85.9972 1.68349 86 1.55857V0.4749C85.9975 0.349535 85.9445 0.230005 85.8523 0.14144C85.7602 0.0528756 85.6359 0.00217576 85.5057 0L69.035 0C68.9049 0.00244731 68.781 0.053267 68.689 0.141803C68.5971 0.230339 68.5443 0.349715 68.5417 0.4749V7.52404C68.5417 7.77902 68.7701 7.99894 69.0338 7.99894H85.5068C85.7716 7.99894 86 7.77796 86 7.52404V3.5591M59.4954 5.57556C59.2659 5.71049 59.1081 5.84648 58.8268 5.84648H56.7304C56.4667 5.84648 56.2913 5.71049 56.0618 5.57556L52.0324 3.11819C51.8029 2.9822 51.6098 3.0842 51.6098 3.33811V7.52404C51.6098 7.77902 51.3803 7.99894 51.1166 7.99894H49.0225C48.8924 7.99649 48.7685 7.94567 48.6765 7.85713C48.5846 7.7686 48.5318 7.64922 48.5293 7.52404V0.4749C48.5293 0.21992 48.7588 0 49.0225 0H51.2755C51.5392 0 51.7146 0.118991 51.9441 0.25498L57.4366 3.67596C57.5378 3.74224 57.6573 3.77768 57.7797 3.77768C57.9021 3.77768 58.0217 3.74224 58.1229 3.67596L63.6131 0.25498C63.8426 0.120053 64.0004 0.00106242 64.2817 0.00106242H66.5348C66.7996 0.00106242 67.028 0.220983 67.028 0.475963V7.5251C67.028 7.78008 66.7985 8 66.5348 8H64.4406C64.3106 7.99755 64.1866 7.94673 64.0947 7.8582C64.0027 7.76966 63.95 7.65029 63.9474 7.5251V3.35511C63.9474 3.1012 63.7543 2.9992 63.5259 3.13519L59.4954 5.57556ZM35.8066 2.03347C35.6653 2.03347 35.5418 2.13546 35.4535 2.25339L34.1516 3.86401C34.0633 3.98194 34.1173 4.08393 34.2575 4.08393H43.6205C43.9195 4.08393 43.9371 3.98194 43.9371 3.69402V2.57636C43.9371 2.18645 43.9548 2.05046 43.6205 2.05046H35.8066V2.03347ZM30.3494 8H27.6396C27.4278 8 27.3395 7.81301 27.4454 7.64409L33.324 0.324037C33.4653 0.151926 33.6595 0 33.8691 0H46.4881C46.8224 0 47.0342 0.270916 47.0342 0.592829V7.52404C47.0342 7.77902 46.8047 7.99894 46.541 7.99894H44.4303C44.3003 7.99649 44.1763 7.94567 44.0844 7.85713C43.9925 7.7686 43.9397 7.64922 43.9371 7.52404V6.52537C43.9371 6.23639 43.9018 6.1344 43.6205 6.1344H32.5682C32.3564 6.1344 32.2152 6.27039 32.0751 6.43931L32.0397 6.47331L31.1957 7.5251C30.9838 7.77796 30.6848 7.99894 30.4211 7.99894H30.3505L30.3494 8ZM24.8073 7.99894C25.071 7.99894 25.37 7.79495 25.5808 7.52404L31.2299 0.4749C31.4417 0.21992 31.3369 0 31.0732 0H29.9478C29.736 0 29.5418 0.135989 29.4016 0.321912L23.523 7.64197C23.4347 7.81195 23.523 7.99894 23.7172 7.99894H24.8073ZM20.864 7.99894C21.1288 7.99894 21.4267 7.79495 21.6385 7.52404L27.2876 0.4749C27.4995 0.21992 27.3936 0 27.1299 0H25.5278C25.3182 0 25.124 0.135989 24.9827 0.321912L19.1041 7.64197C19.0158 7.81195 19.1041 7.99894 19.2983 7.99894H20.864ZM14.4226 7.99894C14.2119 7.99894 14.1247 7.81195 14.2295 7.64303L20.1082 0.322975C20.2483 0.152988 20.4425 0 20.6532 0H22.9945C23.2582 0 23.3641 0.21992 23.1523 0.4749L17.4855 7.52404C17.2748 7.77902 16.9747 7.99894 16.711 7.99894H14.4226ZM9.05484 7.99894C8.8441 7.99894 8.75693 7.81195 8.86175 7.64303L14.7227 0.322975C14.8628 0.152988 15.057 0 15.2678 0H18.4178C18.6826 0 18.7875 0.21992 18.5767 0.4749L12.9276 7.52404C12.7157 7.77902 12.4167 7.99894 12.153 7.99894H9.05484ZM0.237994 7.99894C0.0272552 7.99894 -0.0610125 7.81195 0.0449087 7.64303L5.90478 0.322975C6.04601 0.151926 6.25785 0 6.45094 0H13.3325C13.5962 0 13.701 0.21992 13.4903 0.4749L7.85881 7.52404C7.64697 7.77902 7.34796 7.99894 7.08426 7.99894H0.237994Z" fill="black"/>
</svg>

<svg width="86" height="8" fill="currentColor" xmlns="http://www.w3.org/2000/svg"><path d="M86 3.626a.476.476 0 0 0-.148-.332.513.513 0 0 0-.345-.142h-8.113a.513.513 0 0 0-.346.142.476.476 0 0 0-.147.332v.679c0 .254.23.49.493.49h5.104c.334 0 .317.154.317.527v.085c0 .371.017.456-.317.456H72.131a.513.513 0 0 1-.345-.142.476.476 0 0 1-.147-.332V2.507c0-.254.21-.474.493-.474h13.376a.514.514 0 0 0 .345-.142.477.477 0 0 0 .147-.332V.475a.476.476 0 0 0-.148-.334.513.513 0 0 0-.346-.141H69.035a.513.513 0 0 0-.346.142.476.476 0 0 0-.147.333v7.049c0 .255.228.475.492.475h16.473A.495.495 0 0 0 86 7.524V3.559M59.495 5.576c-.23.134-.387.27-.668.27H56.73c-.263 0-.439-.136-.668-.27l-4.03-2.458c-.23-.136-.422-.034-.422.22v4.186c0 .255-.23.475-.493.475h-2.094a.513.513 0 0 1-.347-.142.476.476 0 0 1-.147-.333V.474c0-.254.23-.474.493-.474h2.254c.263 0 .439.119.668.255l5.493 3.421a.627.627 0 0 0 .686 0l5.49-3.421c.23-.135.387-.254.669-.254h2.253c.265 0 .493.22.493.475v7.05c0 .254-.23.474-.493.474H64.44a.513.513 0 0 1-.346-.142.476.476 0 0 1-.148-.333v-4.17c0-.254-.193-.356-.421-.22l-4.03 2.44zM35.807 2.033c-.142 0-.265.102-.354.22l-1.301 1.611c-.089.118-.035.22.105.22h9.364c.298 0 .316-.102.316-.39V2.576c0-.39.018-.526-.316-.526h-7.814v-.017zM30.349 8h-2.71c-.211 0-.3-.187-.194-.356l5.879-7.32c.141-.172.336-.324.545-.324h12.62c.333 0 .545.27.545.593v6.931c0 .255-.23.475-.493.475h-2.11a.513.513 0 0 1-.347-.142.476.476 0 0 1-.147-.333v-.999c0-.289-.035-.39-.316-.39H32.567c-.212 0-.353.135-.493.304l-.035.034-.844 1.052c-.212.253-.511.474-.775.474h-.07L30.349 8zm-5.542-.001c.264 0 .563-.204.774-.475L31.23.474C31.442.22 31.337 0 31.073 0h-1.125c-.212 0-.406.136-.546.322l-5.879 7.32c-.088.17 0 .357.194.357h1.09zm-3.943 0c.265 0 .563-.204.774-.475l5.65-7.05C27.5.22 27.394 0 27.13 0h-1.602c-.21 0-.404.136-.545.322l-5.879 7.32c-.088.17 0 .357.194.357h1.566zm-6.441 0c-.211 0-.298-.187-.194-.356l5.88-7.32c.14-.17.333-.323.544-.323h2.341c.264 0 .37.22.158.475l-5.667 7.049c-.21.255-.51.475-.774.475h-2.288zm-5.368 0c-.21 0-.298-.187-.193-.356l5.86-7.32c.14-.17.335-.323.546-.323h3.15c.265 0 .37.22.159.475l-5.65 7.049c-.211.255-.51.475-.774.475H9.055zm-8.817 0c-.21 0-.299-.187-.193-.356l5.86-7.32C6.046.152 6.258 0 6.45 0h6.881c.264 0 .369.22.158.475L7.86 7.524c-.212.255-.511.475-.775.475H.238z"/></svg>
